package/converter/svg/solid/circle-up.svg

<svg xmlns="http://www.w3.org/2000/svg" viewBox="0 0 512 512"><!-- Font Awesome Pro 6.0.0-alpha2 by @fontawesome - https://fontawesome.com License - https://fontawesome.com/license (Commercial License) --><path d="M256 16C123.42 16 16 123.42 16 256S123.42 496 256 496C388.582 496 496 388.58 496 256S388.582 16 256 16ZM382.781 246.125C380.312 252.109 374.469 256 368 256H304V352C304 369.673 289.673 384 272 384H240C222.327 384 208 369.673 208 352V256H144C137.531 256 131.688 252.109 129.219 246.125C126.734 240.141 128.109 233.266 132.688 228.688L244.688 116.688C250.935 110.44 261.065 110.44 267.312 116.688L379.312 228.688C383.891 233.266 385.266 240.141 382.781 246.125Z"/></svg>

<svg xmlns="http://www.w3.org/2000/svg" viewBox="0 0 512 512"><!--! Font Awesome Pro 6.6.0 by @fontawesome - https://fontawesome.com License - https://fontawesome.com/license (Commercial License) Copyright 2024 Fonticons, Inc. --><path d="M256 512A256 256 0 1 0 256 0a256 256 0 1 0 0 512zm11.3-395.3l112 112c4.6 4.6 5.9 11.5 3.5 17.4s-8.3 9.9-14.8 9.9l-64 0 0 96c0 17.7-14.3 32-32 32l-32 0c-17.7 0-32-14.3-32-32l0-96-64 0c-6.5 0-12.3-3.9-14.8-9.9s-1.1-12.9 3.5-17.4l112-112c6.2-6.2 16.4-6.2 22.6 0z"/></svg>
